X: 97
T: Auchindown
T: Reel, B Dorian
L: 1/16
M: 4/4
K: B Dorian
B4B2c2 B2A2F2B2| A2F2E2C2 A,2B,2C2E2| B4B2c2 B2A2F2B2| A2F2E2C2 B,1B,1B,2B,4| 
B6B2 B2A2F2B2| A2F2E2C2 A,2B,2C2A,2| B,2A,2B,2C2 F2E2F2A2| B2F2A2F2 B,1B,1B,2B,4|| 
b2a2f2b2 a2f2e2g2| f2e2d2f2 e2c2B2A2| b2a2f2b2 a2f2e2g2| f1d3e2c2 B1B1B2B4| 
b2a2f2b2 a2f2e2g2| f2e2d2f2 e2c2B2A2| B2A2B2c2 d2c2d2e2| f1d3e2c2 B1B1B2B4|| 
D: Carl MacKenzie, A Cape Breton Classic, CLM 1007
